!!!OTL: WAER ICH EIN BRUENNLEIN KLAR, BOET ICH DIR KUEHLUNG DAR
!!!ARE: Europa, Mitteleuropa, Deutschland, Schwaben
!!!SCT: Z0302
!!!YEM: Copyright 1995, estate of Helmut Schaffrath.
**kern
*ICvox
*Ivox
*M3/4
*k[f#]
*G:
{4.b
8a
4b
=1
4.dd
8cc
4b}
=2
{4a
4g
4a
=3
4b
4a
4g}
=4
{4b
4b
4a#
=5
4b
2r}
=6
{4b
4a
8b
8cc
=7
4.ee
8dd
8cc
8b}
=8
{4b
4a
8b
8cc
=9
4.ee
8dd
8cc
8b}
=10
{8b
8a
4a
8cc
8b
=11
4.a
4.r}
=12
{4b
8dd
8cc
8b
8a
=13
4.g
4.r}
==
!!!AGN: Lyrisches Lied, Romanze
!!!ONB: ESAC (Essen Associative Code) Database: ZUCCAL
!!!AMT: simple triple
!!!AIN: vox
!!!EED: Helmut Schaffrath
!!!EEV: 1.0
*-
